icons/dell.svg

<svg xmlns="http://www.w3.org/2000/svg" aria-labelledby="simpleicons-dell-icon" role="img" viewBox="0 0 24 24"><title id="simpleicons-dell-icon">Dell icon</title><path d="m 17.96256,14.5992 c -4.8e-4,-1.758 -2.4e-4,-3.51624 0,-5.27448 0.40752,2.4e-4 0.81504,0 1.22256,2.4e-4 2.4e-4,1.40112 0,2.80248 2.4e-4,4.2036 0.71328,2.4e-4 1.42632,2.4e-4 2.1396,2.4e-4 4.8e-4,0.35688 4.8e-4,0.71352 0,1.0704 -1.1208,0 -2.2416,0 -3.3624,0 z M 8.1792,11.3124 c 0.9936,-0.76392 1.98672,-1.52856 2.98056,-2.29248 0.28056,0.22848 0.56016,0.45816 0.84072,0.68688 -0.94224,0.714 -1.88544,1.42632 -2.82768,2.14032 0.20352,0.17832 0.40728,0.35664 0.61128,0.53496 0.94248,-0.73872 1.8852,-1.47696 2.8272,-2.21592 0.28104,0.22824 0.56064,0.45816 0.84096,0.68736 -0.9384,0.74424 -1.8804,1.48368 -2.82768,2.2164 0.20328,0.17904 0.40752,0.35712 0.61128,0.53568 0.94296,-0.76464 1.88616,-1.52904 2.8284,-2.29416 -7.2e-4,-0.66216 -2.4e-4,-1.32432 -2.4e-4,-1.98648 0.40776,-2.4e-4 0.81552,-2.4e-4 1.22304,0 4.8e-4,1.40112 -2.4e-4,2.80248 4.8e-4,4.2036 0.73848,4.8e-4 1.4772,0 2.21568,2.4e-4 2.4e-4,0.35688 2.4e-4,0.71352 0,1.0704 -1.1208,0 -2.2416,0 -3.3624,0 -2.4e-4,-0.6624 2.4e-4,-1.3248 -2.4e-4,-1.9872 -0.99408,0.76344 -1.98696,1.52856 -2.98104,2.292 C 10.16592,14.14008 9.17256,13.37544 8.17872,12.61152 8.0352,13.34088 7.52568,13.9728 6.86688,14.3064 6.58176,14.4528 6.27,14.54688 5.95152,14.58216 c -0.18288,0.0216 -0.36696,0.0166 -0.55056,0.017 -0.62808,0 -1.2564,2.4e-4 -1.88448,0 -2.4e-4,-1.75824 -2.4e-4,-3.51624 0,-5.27424 0.72408,2.4e-4 1.44816,-9.6e-4 2.17224,4.8e-4 0.564,0.004 1.12392,0.2028 1.5636,0.55632 0.4536,0.35976 0.77784,0.87264 0.92688,1.43064 M 4.66296,10.3946 c 2.4e-4,1.06992 2.4e-4,2.14008 0,3.21 0.31776,-2.4e-4 0.63552,0.001 0.95328,-7.2e-4 0.402,-0.005 0.786,-0.21168 1.0356,-0.52248 C 7.08048,12.56204 7.1532,11.78396 6.834,11.19212 6.63528,10.8158 6.27744,10.51748 5.85792,10.42556 5.69184,10.38576 5.52048,10.39536 5.35128,10.39436 5.12184,10.3946 4.8924,10.39412 4.66296,10.3946 Z M 11.81952,0 h 0.33744 c 1.87632,0.024 3.74544,0.4956 5.4048,1.3728 1.62192,0.85128 3.0444,2.07864 4.12584,3.55728 0.96144,1.30944 1.65312,2.8164 2.01312,4.40064 0.1872,0.816 0.28344,1.65192 0.29928,2.4888 v 0.3612 c -0.0197,1.11528 -0.18576,2.22912 -0.50784,3.29736 -0.52728,1.76112 -1.47024,3.39528 -2.72832,4.73544 -1.26096,1.34784 -2.838,2.39856 -4.56936,3.0384 C 14.91312,23.73 13.54896,23.97696 12.1824,24 H 11.82096 C 10.40616,23.9767 8.99472,23.70744 7.67568,23.19384 6.06888,22.57104 4.60128,21.59448 3.40176,20.35752 2.118,19.03848 1.1412,17.42208 0.57624,15.67008 0.21144,14.54424 0.0204,13.36392 0,12.1812 V 11.81952 C 0.0115,11.27928 0.0535,10.73976 0.13632,10.20576 0.39576,8.50152 1.038,6.85872 1.99152,5.42328 3.16224,3.654 4.80288,2.19816 6.702,1.25208 8.28552,0.45768 10.04832,0.02808 11.81952,0 m -0.15264,1.22976 c -0.48336,0.0149 -0.966,0.0607 -1.44312,0.14016 -1.81872,0.29616 -3.5544,1.07688 -4.98744,2.23464 -1.48584,1.19376 -2.64552,2.79 -3.318,4.57368 -0.98808,2.59536 -0.92016,5.57424 0.19248,8.11944 0.7596,1.75464 1.998,3.29856 3.54576,4.42128 1.40496,1.02624 3.0636,1.70184 4.78632,1.94592 1.45608,0.20904 2.95536,0.12456 4.37592,-0.25944 1.93488,-0.51648 3.71376,-1.59456 5.07552,-3.06216 1.36512,-1.46328 2.31072,-3.3144 2.6856,-5.28096 0.2976,-1.54464 0.25728,-3.15408 -0.1224,-4.68096 C 22.04448,7.71048 21.21768,6.1452 20.07648,4.85736 18.81648,3.42936 17.17104,2.34408 15.35976,1.75512 14.172,1.36608 12.91584,1.18968 11.66688,1.22976 Z"/></svg>

<svg xmlns="http://www.w3.org/2000/svg" aria-labelledby="simpleicons-dell-icon" role="img" viewBox="0 0 24 24"><title id="simpleicons-dell-icon">Dell icon</title><path d="M17.963 14.6V9.324h1.222v4.204h2.14v1.07h-3.362zm-9.784-3.288l2.98-2.292c.281.228.56.458.841.687l-2.827 2.14.611.535 2.827-2.216c.281.228.56.458.841.688a295.83 295.83 0 0 1-2.827 2.216l.61.536 2.83-2.295-.001-1.986h1.223v4.204h2.216v1.07h-3.362v-1.987c-.995.763-1.987 1.529-2.981 2.292l-2.981-2.292c-.144.729-.653 1.36-1.312 1.694-.285.147-.597.24-.915.276-.183.022-.367.017-.551.017H3.516V9.325H5.69a2.544 2.544 0 0 1 1.563.557c.454.36.778.872.927 1.43m-3.516-.917v3.21l.953-.001a1.377 1.377 0 0 0 1.036-.523 1.74 1.74 0 0 0 .182-1.889 1.494 1.494 0 0 0-.976-.766c-.166-.04-.338-.03-.507-.032h-.688zM11.82 0h.337a11.94 11.94 0 0 1 5.405 1.373 12.101 12.101 0 0 1 4.126 3.557A11.93 11.93 0 0 1 24 11.82v.36a11.963 11.963 0 0 1-3.236 8.033A11.967 11.967 0 0 1 12.182 24h-.361a11.993 11.993 0 0 1-4.145-.806 12.04 12.04 0 0 1-4.274-2.836A12.057 12.057 0 0 1 .576 15.67 12.006 12.006 0 0 1 0 12.181v-.361a11.924 11.924 0 0 1 1.992-6.396 12.211 12.211 0 0 1 4.71-4.172A11.875 11.875 0 0 1 11.82 0m-.153 1.23a10.724 10.724 0 0 0-6.43 2.375 10.78 10.78 0 0 0-3.319 4.573 10.858 10.858 0 0 0 .193 8.12 10.788 10.788 0 0 0 3.546 4.421 10.698 10.698 0 0 0 4.786 1.946c1.456.209 2.955.124 4.376-.26a10.756 10.756 0 0 0 5.075-3.062 10.742 10.742 0 0 0 2.686-5.28 10.915 10.915 0 0 0-.122-4.682 10.77 10.77 0 0 0-7.098-7.626 10.78 10.78 0 0 0-3.693-.525z"/></svg>
